X: 39844
T: Thirteen Hour Day
R: jig
M: 6/8
K: Eminor
|:EGB AGF|AFG EFD|EGB edc|(B3 B3)|
EGB AGF|AFG EFD|EGB AFD|1 E3 E2B:|2 E3 EGB||
|:e3 gfe|Bef gfe|a3 gfe|d3 d2B|
e3 dcB|AFG EFD|EGB AFD|1 E3 EGB:|2 E3 E2D||

